src/pos-icons/chevron-triple-right.svg

<svg height="24" viewBox="0 0 24 24" width="24" xmlns="http://www.w3.org/2000/svg"><path d="m14.58 16.59 4.59-4.59-4.59-4.59 1.42-1.41 6 6-6 6zm-6 0 4.59-4.59-4.59-4.59 1.42-1.41 6 6-6 6zm-6 0 4.59-4.59-4.59-4.59 1.42-1.41 6 6-6 6z"/></svg>

<?xml version="1.0" encoding="UTF-8"?><!DOCTYPE svg PUBLIC "-//W3C//DTD SVG 1.1//EN" "http://www.w3.org/Graphics/SVG/1.1/DTD/svg11.dtd"><svg xmlns="http://www.w3.org/2000/svg" xmlns:xlink="http://www.w3.org/1999/xlink" version="1.1" id="mdi-chevron-triple-right" width="24" height="24" viewBox="0 0 24 24"><path d="M14.58,16.59L19.17,12L14.58,7.41L16,6L22,12L16,18L14.58,16.59M8.58,16.59L13.17,12L8.58,7.41L10,6L16,12L10,18L8.58,16.59M2.58,16.59L7.17,12L2.58,7.41L4,6L10,12L4,18L2.58,16.59Z" /></svg>
